X:1
T:Title
T:Funiculì, funiculà
T:Music by Luigi Denza Arrangement for two violins by Alex Evstyugov
C:Composer
%%score [ 1 2 ]
L:1/8
Q:3/8=120
M:6/8
K:A
V:1 treble nm="Violine"
V:2 treble nm="Violine"
V:1
"^allegro brillante"!mf! (eBc dcB) |!mf! (eBc dcB) | (eBc)!<(! (dcB) | (fed) (gfe)!<)! | %4
!f! a4!>(! a2 | e4 e2!>)! |!mf! A6- | A z z z2!mf! e |"^A" a6- | a z a .g2 g | .e2 e!>(! .f2 f | %11
 .c2 z c3- | c z c B2 .A!>)! |!mp! A6- | A z!mf! c!>(! B2 .A!>)! |!mp! A6- | A z z z2!mf! e | a6- | %18
 a z a .g2 g | .e2 e!>(! .f2 f | .c2 z c3- | c z c B2 .A!>)! |!mp! A6- | A z!mf! c!>(! B2 .A!>)! | %24
!mp! A6- | A z z z2 c |!p!"^B" c6- | c z c .^d2 d | .c2 c .^d2 d | .c2 z c3- | %30
 c z!mp! G !tenuto!.G2 G | G6- | G z G !tenuto!.G2 G | G6- | G z z z2!mf! e | e6- | %36
 e z!>(! e .f2 f | .e2 e .f2 f | .e2!>)! z!mp! e3- | e z B !tenuto!.B2 B | B6- | %41
 B z!mf! B!>(! !tenuto!.B2 B!>)! |!mp! B6- | B z z z3 |:!mf!"^C" g3 .f3 |!>(! g3 f3 | %46
 .a2 g .f2 a!>)! |!mp! g6 |!mf! g3 .f3 |!>(! g3 f3 | .a2 g .f2 g!>)! |!mp! .e2!p! .c!p! .c2 .c | %52
!<(! .c2 .c .c2 .c | !tenuto!.c2 .c .c2 .c | !tenuto!.c2 .c .c2 .c!<)! |!f! a6 | %56
 .b2!>(! a .f2 a!>)! |!mf! .e2 !tenuto!.c .c2 d |!>(! .e2 d .c2 B!>)! |1!mp! A6 :|2!mp!"^D" A6 || %61
 z6 |!mf! (eBc dcB) | (eBc dcB) | .A2 z z3 | z6 |] %66
V:2
 z3 z3 |!mp! .G z z z3 | .G z z .G z z |!<(! .B z z .d!<)! z z |!mf! .e z .e .c z!>(! .c | %5
 .A z .A .E z .E | .C z .C .E z .C!>)! |!mp! .A, z z .A, z z |!p! .A, z z .A, z z | %9
 .A, z z .A, z z | .A, z z .A, z z | .A, z z .A, z z | .A, z z .E z z |!mp! .A, z .A, .A, z .A, | %14
 .A, z z .E z z | .A, z .A, .A, z .A, | .A, z .E .E z z | .A, z z .A, z z | .A, z z .E z z | %19
 .A, z z .C z z | .A, z z .A, z z | .A, z z .E z z | .A, z .A, .A, z .A, | .A, z z .E z z | %24
 .A, z .A, .A, z .A, | .A, z .C .C z z |!p! G z z E z z | C z z ^B, z z | G z z F z z | %29
 E z z ^D z z | C z z ^B, z z |!p! .C z .C .C z .C | .C z z .^B, z z | .C z .C .C z .C | %34
 .C z!mp! .E .E z z |!mp! .B z z .G z z | .E z z .B, z z | .E z z .^D z z | .E z z .B, z z | %39
 .E z z .^D z z | .E z z .B, z z | .E z z .^D z z | .E z z .B, z z | .E z z .E.E.E |: %44
 .E z z .B, z z | .E z z .=D z z | .E z z .B, z z | .E z z .E.E.E | .E z z .B, z z | %49
 .E z z!>(! .D z z | .E z z .B, z z!>)! |!p! .A, z z!pp! .E z z | .G z z!<(! .G z .G | %53
 .F z .F .F z .F | .^E z .E .E.E.E!<)! |!f! .F z!mf! .C .C.C.C |!mf! .D z z!>(! .B, z z | %57
 .C z z .E z z | .D!>)! z z!p! .B, z z |1!mf! .A,.G,.A, .B,.C.D :|2!p! .C.B,.C!<(! .D.C.B, || %61
 .E.B,.C .D.C.B,!<)! |!mp! .D z z .E z z | .D z z .B, z z | .A, z z .A,.A,.A, | %65
 !tenuto!.A, z z z3 |] %66

